-- 01 Midsommar

do
    setcps (90/60/4)
    d1 $ slow 4 $ n ("<d4'min7 f4'dom7 a4'min7 c4'dim7>" + "<0!3 7>/8") # helmdaisy # legato 2
    d2 $ shuffle 2 $ (loopAt 2 $ striate 16 $ s "8obj" # n "<0 1 2 3 4>") # gain 1.2
    d3 $ (loopAt 2 $ slice 8 (scramble 8 $ "0 1 2 3 4 5 6 7 8") $ s "8scp" # n "<0 1 0 4>") # gain 1.2 # hpf 15000
    d4 $ s "dtfx/2" # n (irand 100) # gain 1.6 # legato 1
    d5 $ loopAt 2 $ striate 16 $ s "sweepup/4" # gain 1.3

hush
